X: 20942
M: 6/8
L: 1/8
K: F
V: 1 name="2"
cdc cAc | BcB BGB | AGF cBA | GGG GAB |\
cdc cAc | BcB BGB | AGF GFE | FFF F2 H|]
d>cd c3 | BAB ABc | def cBA | BAG "^D.C."F2 |]


